static/assets/images/icons/close.svg

<svg width="256" height="256" viewBox="0 0 256 256" fill="none" xmlns="http://www.w3.org/2000/svg">
<path d="M46.8079 46.8079C49.887 43.7294 54.0628 42 58.4169 42C62.7709 42 66.9467 43.7294 70.0258 46.8079L128.084 104.866L186.141 46.8079C189.235 43.8029 193.388 42.1361 197.701 42.1676C202.014 42.1992 206.141 43.9265 209.191 46.9763C212.241 50.0262 213.968 54.1536 214 58.4666C214.031 62.7796 212.364 66.9318 209.359 70.0258L151.302 128.084L209.359 186.141C212.364 189.235 214.031 193.388 214 197.701C213.968 202.014 212.241 206.141 209.191 209.191C206.141 212.241 202.014 213.968 197.701 214C193.388 214.031 189.235 212.364 186.141 209.359L128.084 151.302L70.0258 209.359C66.9318 212.364 62.7796 214.031 58.4666 214C54.1536 213.968 50.0262 212.241 46.9763 209.191C43.9265 206.141 42.1992 202.014 42.1676 197.701C42.1361 193.388 43.8029 189.235 46.8079 186.141L104.866 128.084L46.8079 70.0258C43.7294 66.9467 42 62.7709 42 58.4169C42 54.0628 43.7294 49.887 46.8079 46.8079Z" fill="black"/>
</svg>

<svg xmlns="http://www.w3.org/2000/svg" fill="none" viewBox="0 0 256 256"><path fill="#000" d="M46.808 46.808a16.42 16.42 0 0 1 23.218 0l58.058 58.058 58.057-58.058A16.42 16.42 0 0 1 214 58.467a16.42 16.42 0 0 1-4.641 11.559l-58.057 58.058 58.057 58.057a16.42 16.42 0 0 1-23.218 23.218l-58.057-58.057-58.058 58.057a16.42 16.42 0 0 1-23.05-.168 16.42 16.42 0 0 1-.168-23.05l58.058-58.057-58.058-58.058a16.42 16.42 0 0 1 0-23.218"/></svg>
